icons/hexagon-arrow-down-outline.svg

<svg xmlns="http://www.w3.org/2000/svg" width="24" height="24" viewBox="0 0 24 24">
  <path d="M16.3174576,1 C17.4115312,1 18.4188507,1.59559898 18.9461053,2.55424375 L18.9461053,2.55424375 L23.3461053,10.5542438 C23.8412416,11.4544917 23.8412416,12.5455083 23.3461053,13.4457562 L23.3461053,13.4457562 L18.9461053,21.4457562 C18.4188507,22.404401 17.4115312,23 16.3174576,23 L16.3174576,23 L7.68254244,23 C6.58846875,23 5.58114934,22.404401 5.05389472,21.4457562 L5.05389472,21.4457562 L0.653894716,13.4457562 C0.158758351,12.5455083 0.158758351,11.4544917 0.653894716,10.5542438 L0.653894716,10.5542438 L5.05389472,2.55424375 C5.58114934,1.59559898 6.58846875,1 7.68254244,1 L7.68254244,1 Z M16.3174576,3 L7.68254244,3 C7.31785121,3 6.98207807,3.19853299 6.80632653,3.51808125 L6.80632653,3.51808125 L2.40632653,11.5180813 C2.24128108,11.8181639 2.24128108,12.1818361 2.40632653,12.4819187 L2.40632653,12.4819187 L6.80632653,20.4819187 C6.98207807,20.801467 7.31785121,21 7.68254244,21 L7.68254244,21 L16.3174576,21 C16.6821488,21 17.0179219,20.801467 17.1936735,20.4819187 L17.1936735,20.4819187 L21.5936735,12.4819187 C21.7587189,12.1818361 21.7587189,11.8181639 21.5936735,11.5180813 L21.5936735,11.5180813 L17.1936735,3.51808125 C17.0179219,3.19853299 16.6821488,3 16.3174576,3 L16.3174576,3 Z M11.3665424,17.773 L11.3538862,17.7633128 L11.3538862,17.7633128 L11.2928932,17.7071068 L7.63603897,14.0502525 L7.55285036,13.9560452 C7.24782547,13.563754 7.27555501,12.9965229 7.63603897,12.636039 C8.02656326,12.2455147 8.65972824,12.2455147 9.05025253,12.636039 L9.05025253,12.636039 L10.9991458,14.586 L11,7 L11.0067277,6.88337887 C11.0644928,6.38604019 11.4871642,6 12,6 C12.5522847,6 13,6.44771525 13,7 L13,7 L12.9991458,14.586 L14.9497475,12.636039 L15.0439548,12.5528504 C15.436246,12.2478255 16.0034771,12.275555 16.363961,12.636039 C16.7544853,13.0265633 16.7544853,13.6597282 16.363961,14.0502525 L16.363961,14.0502525 L12.7071068,17.7071068 L12.625449,17.7803112 C12.6225945,17.7826022 12.6197272,17.7848777 12.6128994,17.7902954 C12.6041603,17.7970905 12.5953343,17.8037205 12.5866395,17.8099369 C12.5664533,17.8245831 12.5456983,17.8384932 12.5238,17.8521085 C12.5087703,17.8613648 12.4935488,17.8701866 12.4786822,17.8782035 L12.4786822,17.8782035 L12.4232215,17.9063266 L12.4232215,17.9063266 L12.3710585,17.928896 C12.3515792,17.9366843 12.3317977,17.9438775 12.3121425,17.9502619 L12.3121425,17.9502619 L12.2658396,17.964279 C12.2444365,17.9701664 12.2227461,17.9753602 12.2007258,17.9797599 C12.1834538,17.9832818 12.1661068,17.9863441 12.1489612,17.9889807 L12.1489612,17.9889807 L12.0795424,17.996 L12.0265424,17.999 L12.0181458,17.999 L12,18 C11.9935385,18 11.9870914,17.9999387 11.9806591,17.9998167 L11.9806591,17.9998167 L11.9409686,17.9982669 C11.9308872,17.9976744 11.9208131,17.99693 11.9101982,17.9960225 C11.8903051,17.994252 11.8705796,17.991899 11.8515331,17.9889822 C11.834051,17.9863719 11.8166247,17.9832978 11.7992059,17.9798348 C11.7772539,17.9753602 11.7555635,17.9701664 11.734007,17.9641549 C11.7182588,17.9598259 11.7025958,17.9551048 11.6872762,17.9501291 L11.6872762,17.9501291 L11.6333026,17.930613 C11.613165,17.9226898 11.5932325,17.9140881 11.5729619,17.9044938 C11.5549095,17.8959557 11.5371537,17.8868931 11.5201698,17.8776583 C11.5064305,17.8701389 11.4928304,17.8622728 11.4793398,17.8539326 C11.4583066,17.8410808 11.4377852,17.8274737 11.4182204,17.8135366 L11.4182204,17.8135366 L11.3695424,17.775 L11.3555424,17.763 L11.3665424,17.773 Z"/>
</svg>

<svg xmlns="http://www.w3.org/2000/svg" viewBox="0 0 24 24">
  <path d="M16.32 1a3 3 0 0 1 2.63 1.55l4.4 8c.5.9.5 2 0 2.9l-4.4 8A3 3 0 0 1 16.32 23H7.68a3 3 0 0 1-2.63-1.55l-4.4-8a3 3 0 0 1 0-2.9l4.4-8A3 3 0 0 1 7.68 1zm0 2H7.68a1 1 0 0 0-.87.52l-4.4 8a1 1 0 0 0 0 .96l4.4 8a1 1 0 0 0 .87.52h8.64a1 1 0 0 0 .87-.52l4.4-8a1 1 0 0 0 0-.96l-4.4-8a1 1 0 0 0-.87-.52zm-4.95 14.77h-.02l-.06-.06-3.65-3.66-.09-.1a1 1 0 0 1 1.5-1.31L11 14.59V6.88A1 1 0 0 1 13 7v7.59l1.95-1.95.1-.09a1 1 0 0 1 1.31 1.5l-3.65 3.66-.08.07a3 3 0 0 1-.15.1l-.06.03-.05.02a.95.95 0 0 1-.06.02l-.04.01a.94.94 0 0 1-.12.03h-.13L12 18h-.06a1.15 1.15 0 0 1-.25-.05l-.06-.02a.97.97 0 0 1-.21-.12l-.05-.04h-.01z"/>
</svg>
